X: 27617
T: Moon And The Seven Stars, The
R: jig
M: 6/8
K: Dmajor
c|:d2A A2F|GAB A3|Bcd ~e3|~f3 ecA|
d2A A2F|GAB A3|Bcd e2e|1 Adc d2c:|2 Adc d2d||
|:~e3 e2A|efg f3|efg fed|cdB A2A|
~B3 AFA|~B3 A2A|Bcd e2e|1 Adc d2d:|2 Adc d2c||

